app/dist/common/images/rakuten.svg

<svg fill="none" height="18" width="18" xmlns="http://www.w3.org/2000/svg"><path d="m0 0h18v18h-18z" fill="#be0000"/><path clip-rule="evenodd" d="m8 9.6v2.4h-2v-8h2.75c1.982 0 3.25 1.243 3.25 2.768 0 .939-.708 1.736-1.486 2.23l2.49 3.002h-2.16l-1.95-2.4zm.776-4h-.776v2.4h.776c.752 0 1.224-.551 1.224-1.232 0-.68-.472-1.168-1.224-1.168zm-2.138 8.4-.638-1h8z" fill="#fff" fill-rule="evenodd"/></svg>

<!-- by TradingView --><svg width="18" height="18" fill="none" xmlns="http://www.w3.org/2000/svg"><path fill="#BE0000" d="M0 0h18v18H0z"/><path fill-rule="evenodd" clip-rule="evenodd" d="M8 9.6V12H6V4h2.75C10.732 4 12 5.243 12 6.768c0 .939-.708 1.736-1.486 2.23L13.004 12h-2.16l-1.95-2.4H8zm.776-4H8V8h.776C9.528 8 10 7.449 10 6.768c0-.68-.472-1.168-1.224-1.168zM6.638 14L6 13h8l-7.362 1z" fill="#fff"/></svg>
